_includes/icons/ios-inbox.svg

<svg fill="#666" height="50" viewBox="0 0 50 50" width="50" xmlns="http://www.w3.org/2000/svg"><path d="m8.90625 8c-.390625.042969-.722656.3125-.84375.6875l-5.90625 17.75c-.011719.03125-.023437.0625-.03125.09375l-.03125.03125c-.011719.019531-.023437.042969-.03125.0625v.0625c-.011719.011719-.019531.019531-.03125.03125v.0625c-.011719.011719-.019531.019531-.03125.03125v.0625.03125c-.054687.183594-.054687.378906 0 .5625v14.53125c0 .550781.449219 1 1 1h44c.550781 0 1-.449219 1-1v-14.59375c.070313-.226562.058594-.46875-.03125-.6875-.011719-.011719-.019531-.019531-.03125-.03125v-.03125c-.019531-.042969-.039062-.085937-.0625-.125l-5.9375-17.84375c-.132812-.40625-.511719-.683594-.9375-.6875h-32c-.03125 0-.0625 0-.09375 0zm.8125 2h30.5625l5.34375 16h-13.625c-.550781 0-1 .449219-1 1 0 3.324219-2.675781 6-6 6s-6-2.675781-6-6c0-.550781-.449219-1-1-1h-13.625zm-5.71875 18h13.1875c.515625 3.914063 3.761719 7 7.8125 7s7.296875-3.085937 7.8125-7h13.1875v13h-42z"/></svg>

<svg xmlns="http://www.w3.org/2000/svg" viewBox="0 0 50 50" width="50" height="50" fill="#666"><path d="M 8.90625 8 C 8.515625 8.042969 8.183594 8.3125 8.0625 8.6875 L 2.15625 26.4375 C 2.144531 26.46875 2.132813 26.5 2.125 26.53125 L 2.09375 26.5625 C 2.082031 26.582031 2.070313 26.605469 2.0625 26.625 L 2.0625 26.6875 C 2.050781 26.699219 2.042969 26.707031 2.03125 26.71875 C 2.03125 26.738281 2.03125 26.761719 2.03125 26.78125 C 2.019531 26.792969 2.011719 26.800781 2 26.8125 C 2 26.832031 2 26.855469 2 26.875 C 2 26.886719 2 26.894531 2 26.90625 C 1.945313 27.089844 1.945313 27.285156 2 27.46875 L 2 42 C 2 42.550781 2.449219 43 3 43 L 47 43 C 47.550781 43 48 42.550781 48 42 L 48 27.40625 C 48.070313 27.179688 48.058594 26.9375 47.96875 26.71875 C 47.957031 26.707031 47.949219 26.699219 47.9375 26.6875 L 47.9375 26.65625 C 47.917969 26.613281 47.898438 26.570313 47.875 26.53125 L 41.9375 8.6875 C 41.804688 8.28125 41.425781 8.003906 41 8 L 9 8 C 8.96875 8 8.9375 8 8.90625 8 Z M 9.71875 10 L 40.28125 10 L 45.625 26 L 32 26 C 31.449219 26 31 26.449219 31 27 C 31 30.324219 28.324219 33 25 33 C 21.675781 33 19 30.324219 19 27 C 19 26.449219 18.550781 26 18 26 L 4.375 26 Z M 4 28 L 17.1875 28 C 17.703125 31.914063 20.949219 35 25 35 C 29.050781 35 32.296875 31.914063 32.8125 28 L 46 28 L 46 41 L 4 41 Z"/></svg>
